!!!OTL: No_83_Song_Concerning_Gwi'wizäns.krn
!!!REG: Great_Lakes
!!!LANG: Non-Tone
!!!LING_GROUP: Algonquin
!!!SOCIAL_FUNCTION: war songs
**kern	**kern
*staff2	*staff1
*clefF4	*clefF4
*k[b-e-]	*k[b-e-]
*M3/4	*M3/4
4r	8.B-\L
.	16B-\Jk
=1	=1
12GG^/	4d\
12r	.
12GG/	.
12GG^/	4d\
12r	.
12GG/	.
12GG^/	8B-\L
12r	.
.	8d\J
12GG/	.
=2||	=2||
*M2/4	*M2/4
2r	4d\
.	12d\L
.	12B-\
.	12A\J
=3	=3
2r	8.G\L
.	16G\Jk
.	4G\
=4	=4
2r	4G\
.	8G\L
.	8G\J
=5||	=5||
*M3/4	*M3/4
2.r	2G\
.	8B-\L
.	8B-\J
=6	=6
2.r	4d\
.	4d\
.	8B-\L
.	8d\J
=7||	=7||
*M2/4	*M2/4
2r	4d\
.	12d\L
.	12B-\
.	12A\J
=8	=8
2r	8.G\L
.	16G\Jk
.	4G\
=9	=9
2r	4G\
.	8G\L
.	8G\J
=10	=10
2r	4G\
.	8B-\L
.	8B-\J
=11	=11
2r	4B-\
.	8B-\L
.	8A\J
=12	=12
2r	16G\LK
.	8G\
.	16G\Jk
.	4G\
=13	=13
2r	16E-\LK
.	8.G\J
.	8G\L
.	8G\J
=14	=14
2r	12G\L
.	12E-\
.	12G\J
.	(12G\L
.	12E-\)
.	12E-\J
=15||	=15||
*M3/4	*M3/4
2.r	4D\
.	4D\
.	8D\L
.	8D\J
=16	=16
2.r	2D\
.	(16E-\LL
.	16G\)
.	16.G\
.	32G\JJk
=17||	=17||
*M2/4	*M2/4
2r	4G\
.	8E-\L
.	8D\J
=18	=18
2r	4D\
.	16D/LK
.	8.BB-/J
=19	=19
2r	8GG/L
.	8BB-/J
.	8BB-/L
.	8AA/J
=20	=20
2r	2GG/
==	==
*-	*-
